public/img/tt.svg

<svg width="115" height="19" viewBox="0 0 115 19" fill="none" xmlns="http://www.w3.org/2000/svg">
<path d="M8.58203 7.60755V6.91234C8.34299 6.87972 8.10038 6.85962 7.85283 6.85962C4.86953 6.85962 2.44214 9.28257 2.44214 12.261C2.44214 14.0884 3.3566 15.7054 4.75225 16.6829C3.85166 15.7179 3.29931 14.4252 3.29931 13.0053C3.29931 10.0699 5.65732 7.67591 8.58203 7.60755Z" fill="#25F4EE"/>
<path d="M8.70935 15.4721C10.0406 15.4721 11.1264 14.415 11.1757 13.0983L11.1806 1.33857H13.3327C13.2879 1.09685 13.2634 0.848421 13.2634 0.59375H10.3239L10.319 12.3535C10.2697 13.6702 9.18379 14.7273 7.85263 14.7273C7.43904 14.7273 7.04917 14.6241 6.7063 14.444C7.15525 15.0656 7.88486 15.4721 8.70935 15.4721Z" fill="#25F4EE"/>
<path d="M17.3533 5.32982V4.67616C16.5324 4.67616 15.7674 4.43265 15.126 4.01489C15.6972 4.66945 16.4729 5.14172 17.3533 5.32982Z" fill="#25F4EE"/>
<path d="M15.1259 4.01493C14.5001 3.29783 14.1206 2.36174 14.1206 1.33813L13.3328 1.33859C13.5401 2.45647 14.2048 3.41533 15.1259 4.01493Z" fill="#FE2C55"/>
<path d="M7.85285 9.79423C6.49032 9.79423 5.38159 10.901 5.38159 12.2611C5.38159 13.2082 5.92006 14.0312 6.70651 14.4441C6.41333 14.0384 6.23876 13.5425 6.23876 13.0054C6.23876 11.6454 7.34749 10.5386 8.71004 10.5386C8.96423 10.5386 9.20819 10.5807 9.43914 10.6526V7.65679C9.20018 7.62417 8.95757 7.60406 8.71004 7.60406C8.66705 7.60406 8.62454 7.60675 8.58203 7.60764L8.58243 9.90776C8.35148 9.8358 8.10712 9.79423 7.85285 9.79423Z" fill="#FE2C55"/>
<path d="M17.3533 5.32983V7.61029C15.8292 7.61029 14.4165 7.12372 13.2635 6.29759V12.261C13.2635 15.2393 10.8361 17.6619 7.85278 17.6619C6.69974 17.6619 5.6313 17.2991 4.7522 16.6829C5.74052 17.7423 7.14824 18.4062 8.70951 18.4062C11.6932 18.4062 14.1202 15.9833 14.1202 13.0053V7.04241C15.2732 7.86854 16.6859 8.35509 18.21 8.35509V5.42053C17.9159 5.42053 17.6295 5.38881 17.3533 5.32983Z" fill="#FE2C55"/>
<path d="M13.2636 12.261V6.29759C14.4166 7.12372 15.8293 7.61029 17.3534 7.61029V5.32984C16.4729 5.14174 15.6972 4.66947 15.126 4.01491C14.2049 3.41531 13.5402 2.45645 13.3329 1.33856H11.1808L11.1759 13.0983C11.1266 14.415 10.0408 15.4721 8.70957 15.4721C7.88507 15.4721 7.15546 15.0656 6.70651 14.444C5.92006 14.0312 5.38159 13.2082 5.38159 12.261C5.38159 10.9009 6.49032 9.79418 7.85285 9.79418C8.10713 9.79418 8.35148 9.83574 8.58243 9.90771L8.58204 7.60759C5.65732 7.67595 3.29932 10.0699 3.29932 13.0053C3.29932 14.4253 3.85167 15.7179 4.75226 16.6829C5.63136 17.2991 6.6998 17.6619 7.85284 17.6619C10.8362 17.6619 13.2636 15.2393 13.2636 12.261Z" fill="white"/>
<path fill-rule="evenodd" clip-rule="evenodd" d="M24.5698 3.10138H24.9187H33.7494L32.9065 5.7481L30.5252 5.74729L30.5302 14.9782L30.5298 15.5311H27.5577C27.5577 15.5311 27.5579 15.444 27.5579 15.3411L27.5577 5.74729H24.9199L24.572 5.75273L24.5698 3.10138Z" fill="white"/>
<path fill-rule="evenodd" clip-rule="evenodd" d="M48.7866 3.10138H49.1355H58.1784L57.3356 5.7481L54.742 5.74729L54.7472 14.9782L54.7466 15.5373H51.7745C51.7745 15.5373 51.7749 15.444 51.7747 15.3411L51.7745 5.74729H49.1369L48.7888 5.75273L48.7866 3.10138Z" fill="white"/>
<path fill-rule="evenodd" clip-rule="evenodd" d="M34.3096 7.32553V7.05542H37.2527L37.2539 7.32553L37.2582 14.751L37.2495 15.5312H34.3271V15.1081L34.3096 7.32553Z" fill="white"/>
<path fill-rule="evenodd" clip-rule="evenodd" d="M38.4199 3.65246V3.06616H39.0069H40.8396H41.3305V3.57538L41.3335 8.85574L44.2733 5.97433L47.7826 5.97473L44.0973 9.57869L48.2251 15.5311H44.986L42.2312 11.4038L41.3583 12.2574L41.3599 15.5371L38.4313 15.5311V15.2658L38.4199 3.65246Z" fill="white"/>
<mask id="mask0_78_43" style="mask-type:luminance" maskUnits="userSpaceOnUse" x="69" y="3" width="11" height="13">
<path fill-rule="evenodd" clip-rule="evenodd" d="M69.5693 3.06616H79.3746V15.5371H69.5693V3.06616Z" fill="white"/>
</mask>
<g mask="url(#mask0_78_43)">
<path fill-rule="evenodd" clip-rule="evenodd" d="M69.5693 3.65246V3.06616H70.1561H71.9889H72.4797V3.57538L72.4829 8.85574L75.4227 5.97433L78.932 5.97473L75.2467 9.57869L79.3746 15.5311H76.1354L73.3806 11.4038L72.5077 12.2574L72.5093 15.5371L69.5807 15.5311V15.2658L69.5693 3.65246Z" fill="white"/>
</g>
<path fill-rule="evenodd" clip-rule="evenodd" d="M68.2162 8.45864C67.9526 7.84414 67.5945 7.30917 67.1418 6.85409C66.6893 6.39901 66.1572 6.04176 65.5465 5.78192C64.9354 5.52228 64.2823 5.39246 63.5869 5.39246C63.5662 5.39246 63.5456 5.39346 63.5248 5.39367V5.39286H62.8835L62.9326 5.39508C63.0184 5.39769 63.1034 5.40151 63.1879 5.40755C63.3015 5.4156 63.4136 5.42829 63.5248 5.44358C63.5767 5.45063 63.628 5.45847 63.6792 5.46713C63.6842 5.46793 63.6889 5.46894 63.6938 5.46955C63.8396 5.49471 63.9833 5.52611 64.1249 5.56374C64.1369 5.56696 64.1495 5.56998 64.1615 5.5734C64.1941 5.58226 64.2264 5.59192 64.2587 5.60158C64.2869 5.60983 64.3151 5.61829 64.343 5.62734C64.3702 5.636 64.3972 5.64486 64.4241 5.65371C64.4597 5.66579 64.495 5.67846 64.5303 5.69114C64.5511 5.69879 64.5723 5.70624 64.5931 5.71409C64.6499 5.73583 64.7065 5.75817 64.7626 5.78192C65.3736 6.04176 65.9056 6.39901 66.3581 6.85409C66.8107 7.30917 67.1688 7.84414 67.4324 8.45864C67.6959 9.07314 67.828 9.7379 67.8284 10.4526C67.8288 10.9256 67.7689 11.3795 67.6488 11.814C67.529 12.2487 67.3605 12.6535 67.1434 13.0289C66.9263 13.4044 66.6657 13.7452 66.3619 14.0511C66.0578 14.3571 65.7192 14.6193 65.3464 14.8377C64.9733 15.0565 64.5733 15.2248 64.1465 15.3431C64.08 15.3614 64.0129 15.3777 63.9454 15.3932C63.9198 15.399 63.894 15.4045 63.8685 15.4101C63.8276 15.4188 63.7864 15.4267 63.7453 15.4343C63.7134 15.4404 63.6814 15.4464 63.6491 15.4518C63.5913 15.4613 63.5334 15.4697 63.4749 15.4772C63.3834 15.4888 63.2915 15.4989 63.1985 15.5057C63.1005 15.5129 63.0016 15.5168 62.9017 15.5187L62.8979 15.5196H63.5L63.4996 15.5187C63.5304 15.5192 63.5612 15.5204 63.5925 15.5204C64.0577 15.5204 64.5034 15.4613 64.9304 15.3431C65.3572 15.2248 65.7572 15.0563 66.1303 14.8377C66.5031 14.6192 66.8416 14.3571 67.1458 14.051C67.4495 13.7452 67.7101 13.4044 67.9272 13.0291C68.1444 12.6537 68.3127 12.2486 68.4327 11.814C68.5526 11.3795 68.6124 10.9258 68.6121 10.4526C68.6117 9.73774 68.4797 9.07314 68.2162 8.45864Z" fill="white"/>
<path fill-rule="evenodd" clip-rule="evenodd" d="M62.1853 15.4834C62.1605 15.4806 62.136 15.4768 62.1112 15.4734C62.0627 15.4669 62.0141 15.4602 61.9658 15.4524C61.9373 15.4478 61.9085 15.4427 61.8802 15.4375C61.8328 15.429 61.7857 15.42 61.7389 15.4101C61.7146 15.4051 61.6902 15.4001 61.6659 15.3947C61.5954 15.3788 61.525 15.3618 61.4558 15.3428C61.0235 15.2246 60.621 15.0561 60.2477 14.8375C59.8744 14.6192 59.5355 14.3567 59.2312 14.0508C58.927 13.7449 58.666 13.4041 58.4487 13.0287C58.231 12.6534 58.0621 12.2484 57.9419 11.8138C57.8214 11.3793 57.7613 10.9254 57.7611 10.4522C57.7607 9.97929 57.8206 9.52416 57.9404 9.087C58.0603 8.65008 58.2286 8.24507 58.4457 7.87215C58.6628 7.4994 58.9234 7.15985 59.2274 6.85392C59.5313 6.54799 59.8698 6.28693 60.2429 6.07098C60.616 5.85501 61.0184 5.68795 61.4504 5.56961C61.5155 5.5517 61.5812 5.53599 61.6471 5.5209C61.6756 5.51446 61.7046 5.50822 61.7334 5.50218C61.7651 5.49554 61.7969 5.4897 61.8288 5.48366C62.0182 5.44784 62.2109 5.42147 62.4074 5.40718C62.4985 5.40034 62.5905 5.39671 62.6832 5.3945L62.7178 5.39269H62.0911V5.39349C62.0695 5.39329 62.0481 5.39209 62.0261 5.39209C61.5558 5.39209 61.1048 5.45126 60.6729 5.56961C60.2412 5.68795 59.8385 5.85501 59.4657 6.07098C59.0926 6.28693 58.7538 6.54799 58.4499 6.85392C58.1459 7.15985 57.8856 7.4994 57.6684 7.87215C57.4513 8.24507 57.2828 8.64985 57.163 9.087C57.043 9.52416 56.9832 9.97929 56.9834 10.4522C56.9838 10.9254 57.0441 11.3793 57.1644 11.8138C57.2848 12.2484 57.4535 12.6534 57.671 13.0287C57.8885 13.4041 58.1496 13.7449 58.4537 14.0508C58.758 14.3567 59.0968 14.6189 59.4703 14.8375C59.8433 15.0561 60.2461 15.2246 60.6781 15.3428C61.1101 15.4609 61.5612 15.5202 62.0315 15.5202C62.0587 15.5202 62.0857 15.5201 62.1126 15.5196C62.1126 15.5196 62.1198 15.5192 62.1232 15.5192L62.7165 15.5195L62.7141 15.5184C62.6147 15.5166 62.5158 15.5128 62.418 15.5058C62.3399 15.5001 62.2624 15.4925 62.1853 15.4834Z" fill="white"/>
<path fill-rule="evenodd" clip-rule="evenodd" d="M62.8303 12.9151C62.8417 12.9154 62.8528 12.9159 62.8642 12.9159C62.8852 12.9159 62.9057 12.9146 62.9264 12.9139C62.9162 12.9137 62.9058 12.9133 62.8956 12.9129C62.874 12.9137 62.8521 12.915 62.8303 12.9151Z" fill="white"/>
<path fill-rule="evenodd" clip-rule="evenodd" d="M62.9335 7.99829C62.9094 7.99765 62.8857 7.9967 62.8615 7.9967C62.8518 7.9967 62.8424 7.99726 62.8325 7.9975C62.8578 7.99765 62.8828 7.99805 62.9076 7.99908C62.9163 7.99884 62.9248 7.99845 62.9335 7.99829Z" fill="white"/>
<path fill-rule="evenodd" clip-rule="evenodd" d="M65.1527 11.1157C65.0944 11.3268 65.0127 11.5234 64.9072 11.7058C64.8016 11.8881 64.6752 12.0535 64.5276 12.2021C64.38 12.3508 64.2157 12.4783 64.0344 12.5844C63.8532 12.6904 63.6591 12.7723 63.4516 12.8297C63.2735 12.8792 63.0877 12.9059 62.8955 12.9128C62.9058 12.9132 62.9162 12.9136 62.9265 12.9138C62.9055 12.9144 62.8852 12.9158 62.8642 12.9158C62.8528 12.9158 62.8418 12.9152 62.8304 12.915C62.8209 12.915 62.8115 12.9158 62.8019 12.9158C62.6643 12.9158 62.5305 12.9041 62.3998 12.8834C62.3134 12.8695 62.2279 12.8526 62.1445 12.8297C61.9345 12.7723 61.7389 12.6904 61.5577 12.5844C61.3764 12.4783 61.2118 12.3508 61.064 12.2021C60.9162 12.0535 60.7894 11.8881 60.684 11.7058C60.5783 11.5234 60.4962 11.3268 60.4379 11.1157C60.3794 10.9045 60.3501 10.6841 60.3498 10.4543C60.3497 10.2246 60.3788 10.0036 60.4372 9.79127C60.4952 9.57895 60.5771 9.3823 60.6825 9.20116C60.788 9.02003 60.9144 8.85512 61.0622 8.70661C61.2098 8.55785 61.3741 8.43127 61.5553 8.32645C61.7367 8.22132 61.932 8.14025 62.1419 8.08285C62.2277 8.0591 62.3158 8.04185 62.4048 8.02791C62.5333 8.0078 62.6643 7.99656 62.7993 7.99656C62.8105 7.99656 62.8215 7.99712 62.8329 7.99735C62.8426 7.99712 62.8518 7.99656 62.8616 7.99656C62.8855 7.99656 62.9096 7.99775 62.9335 7.99838C62.925 7.99854 62.9163 7.99894 62.9078 7.99918C63.2049 8.01121 63.4861 8.07343 63.7507 8.18569C64.0477 8.31196 64.3059 8.48565 64.5256 8.70661C64.7457 8.92764 64.9195 9.18747 65.0476 9.48592C65.1755 9.78446 65.2398 10.1073 65.24 10.4543C65.24 10.6841 65.2108 10.9045 65.1527 11.1157ZM67.4328 8.45842C67.1692 7.84397 66.8111 7.30899 66.3585 6.85392C65.9058 6.39884 65.3737 6.04159 64.7631 5.78175C64.707 5.758 64.6502 5.73566 64.5935 5.71392C64.5727 5.70607 64.5515 5.69862 64.5308 5.69098C64.4955 5.6781 64.4601 5.66561 64.4246 5.65354C64.3976 5.64448 64.3706 5.63562 64.3435 5.62697C64.3155 5.61811 64.2874 5.60966 64.259 5.60141C64.2268 5.59175 64.1945 5.58188 64.162 5.57303C64.15 5.56981 64.1374 5.56679 64.1252 5.56357C63.9836 5.52593 63.84 5.49453 63.6942 5.46937C63.6894 5.46857 63.6844 5.46777 63.6796 5.46696C63.6283 5.4583 63.577 5.45045 63.5253 5.44321C63.414 5.42811 63.3018 5.41544 63.1884 5.40738C63.1039 5.40134 63.0186 5.39752 62.9331 5.3949C62.89 5.3937 62.847 5.39209 62.8037 5.39209C62.7632 5.39209 62.7232 5.39349 62.6833 5.3945C62.5906 5.39671 62.4985 5.40034 62.4075 5.40718C62.2109 5.42147 62.0182 5.44784 61.8287 5.48366C61.7968 5.4897 61.765 5.49574 61.7335 5.50218C61.7045 5.50822 61.6757 5.51446 61.647 5.5211C61.581 5.53599 61.5154 5.5517 61.4504 5.56961C61.0185 5.68795 60.6158 5.85501 60.243 6.07098C59.8699 6.28693 59.5314 6.54799 59.2274 6.85392C58.9235 7.16006 58.6629 7.4994 58.4458 7.87215C58.2287 8.24507 58.0601 8.65008 57.9405 9.087C57.8205 9.52416 57.7606 9.97929 57.761 10.4525C57.7612 10.9254 57.8215 11.3793 57.9419 11.8138C58.0621 12.2484 58.2311 12.6534 58.4488 13.0287C58.6661 13.4043 58.9269 13.7449 59.2312 14.051C59.5356 14.3569 59.8744 14.6192 60.2476 14.8375C60.6211 15.0563 61.0235 15.2246 61.4557 15.3428C61.5251 15.3618 61.5955 15.3788 61.6659 15.3947C61.6901 15.4003 61.7145 15.4051 61.7389 15.4101C61.7858 15.42 61.8329 15.4293 61.88 15.4378C61.9088 15.4427 61.9372 15.4478 61.9659 15.4524C62.014 15.4602 62.0625 15.4671 62.1113 15.4734C62.1361 15.4768 62.1606 15.4806 62.1854 15.4834C62.2622 15.4925 62.34 15.5001 62.4181 15.5058C62.5159 15.5128 62.6148 15.5166 62.7142 15.5184C62.7458 15.5191 62.7771 15.5202 62.8091 15.5202C62.8403 15.5202 62.871 15.5191 62.902 15.5184C63.0018 15.5166 63.1009 15.5128 63.1989 15.5056C63.292 15.4987 63.3839 15.4887 63.4753 15.4769C63.5338 15.4695 63.5917 15.4609 63.6495 15.4514C63.6818 15.4462 63.7138 15.44 63.7457 15.4341C63.7869 15.4264 63.828 15.4184 63.869 15.4097C63.8945 15.4045 63.9203 15.3989 63.9458 15.393C64.0133 15.3776 64.0804 15.3613 64.147 15.3428C64.5737 15.2246 64.9738 15.0563 65.3469 14.8375C65.7197 14.6192 66.0582 14.3569 66.3624 14.051C66.6661 13.7449 66.9267 13.4043 67.1438 13.0287C67.3609 12.6534 67.5292 12.2484 67.6493 11.8138C67.7693 11.3793 67.829 10.9254 67.8286 10.4525C67.8282 9.73775 67.6962 9.07291 67.4328 8.45842Z" fill="white"/>
<path fill-rule="evenodd" clip-rule="evenodd" d="M37.2635 4.5928C37.2635 5.4164 36.601 6.08422 35.7836 6.08422C34.9664 6.08422 34.304 5.4164 34.304 4.5928C34.304 3.7692 34.9664 3.10138 35.7836 3.10138C36.601 3.10138 37.2635 3.7692 37.2635 4.5928Z" fill="white"/>
<path fill-rule="evenodd" clip-rule="evenodd" d="M91.2934 3.11798L96.9364 15.6023H95.0036L93.1184 11.4807H87.9465L86.0788 15.6023H84.1333L89.7802 3.11798H91.2934ZM90.5495 5.71039L88.4977 10.2526H92.5846L90.5495 5.71039Z" fill="white"/>
<path fill-rule="evenodd" clip-rule="evenodd" d="M87.687 10.045H93.575V11.8263H87.687V10.045Z" fill="white"/>
<path d="M113.393 8.59837C113.22 8.26049 112.957 7.98333 112.599 7.76456C112.243 7.54675 111.837 7.43766 111.376 7.43766C111.16 7.43766 110.945 7.46178 110.729 7.51013C110.523 7.55629 110.342 7.63034 110.186 7.73197C110.035 7.82974 109.915 7.95332 109.823 8.10469C109.737 8.2483 109.693 8.42048 109.693 8.62592C109.693 8.97576 109.827 9.22925 110.109 9.413C110.429 9.62184 110.952 9.80511 111.675 9.95584C112.78 10.1842 113.605 10.5203 114.149 10.9719C114.714 11.4412 115 12.0785 115 12.8643C115 13.4238 114.891 13.9032 114.669 14.2992C114.452 14.688 114.167 15.0077 113.815 15.2561C113.468 15.5015 113.075 15.6764 112.641 15.7809C112.215 15.8828 111.787 15.9339 111.356 15.9339C110.639 15.9339 109.942 15.7837 109.266 15.4841C108.58 15.1795 108.016 14.701 107.578 14.0526L107.45 13.864L108.89 12.7888L109.022 13.0185C109.234 13.3861 109.547 13.6962 109.966 13.9497C110.382 14.2008 110.837 14.326 111.337 14.326C111.606 14.326 111.861 14.3015 112.104 14.2525C112.333 14.2063 112.53 14.1267 112.698 14.0143C112.861 13.9043 112.991 13.765 113.089 13.5947C113.183 13.4317 113.231 13.2219 113.231 12.962C113.231 12.571 113.053 12.2895 112.671 12.0886C112.232 11.8581 111.587 11.6393 110.739 11.4352C110.463 11.3687 110.17 11.2856 109.861 11.1863C109.533 11.0809 109.23 10.9262 108.952 10.7226C108.667 10.5144 108.432 10.2525 108.248 9.93819C108.057 9.61242 107.964 9.21294 107.964 8.74317C107.964 8.23642 108.063 7.79687 108.263 7.42766C108.462 7.06391 108.728 6.76304 109.061 6.52727C109.388 6.29606 109.758 6.12486 110.172 6.01364C110.579 5.9041 111 5.84937 111.433 5.84937C112.102 5.84937 112.75 6.00069 113.375 6.3023C114.011 6.60899 114.492 7.04542 114.814 7.60912L114.918 7.79137L113.522 8.84759L113.393 8.59837Z" fill="white"/>
<path fill-rule="evenodd" clip-rule="evenodd" d="M106.346 3.15472H104.58V7.15276C103.763 6.48603 102.721 6.0867 101.589 6.0867C98.9604 6.0867 96.8293 8.23551 96.8293 10.8862C96.8293 13.5368 98.9604 15.6857 101.589 15.6857C102.721 15.6857 103.763 15.2863 104.58 14.6196V15.631H106.346V11.0233C106.347 10.9778 106.348 10.932 106.348 10.8862C106.348 10.8403 106.347 10.7947 106.346 10.7491V3.15472ZM104.58 10.7775V10.9949C104.522 12.6115 103.205 13.9044 101.589 13.9044C99.9359 13.9044 98.5956 12.5531 98.5956 10.8862C98.5956 9.21924 99.9359 7.86795 101.589 7.86795C103.205 7.86795 104.522 9.16089 104.58 10.7775Z" fill="white"/>
</svg>

<svg xmlns="http://www.w3.org/2000/svg" width="115" height="19" fill="none" viewBox="0 0 115 19"><path fill="#25f4ee" d="M8.582 7.608v-.696a5 5 0 0 0-.73-.052c-2.982 0-5.41 2.423-5.41 5.401 0 1.827.915 3.444 2.31 4.422A5.37 5.37 0 0 1 3.3 13.005c0-2.935 2.358-5.33 5.283-5.397"/><path fill="#25f4ee" d="M8.71 15.472a2.47 2.47 0 0 0 2.466-2.374l.005-11.76h2.152a4 4 0 0 1-.07-.744h-2.94l-.004 11.76a2.47 2.47 0 0 1-3.613 2.09 2.47 2.47 0 0 0 2.003 1.028M17.353 5.33v-.654c-.82 0-1.586-.243-2.227-.661a4.1 4.1 0 0 0 2.227 1.315"/><path fill="#fe2c55" d="M15.126 4.015a4.06 4.06 0 0 1-1.005-2.677h-.788a4.1 4.1 0 0 0 1.793 2.677M7.853 9.794a2.47 2.47 0 0 0-2.471 2.467c0 .947.538 1.77 1.325 2.183a2.45 2.45 0 0 1-.468-1.439A2.47 2.47 0 0 1 8.71 10.54c.254 0 .498.042.73.114V7.657a5 5 0 0 0-.73-.053l-.128.004v2.3a2.5 2.5 0 0 0-.73-.114"/><path fill="#fe2c55" d="M17.353 5.33v2.28a7 7 0 0 1-4.09-1.312v5.963c0 2.978-2.427 5.4-5.41 5.4a5.4 5.4 0 0 1-3.1-.978 5.4 5.4 0 0 0 3.957 1.723c2.983 0 5.41-2.423 5.41-5.4V7.041a7 7 0 0 0 4.09 1.313V5.421q-.441-.001-.857-.091"/><path fill="#fff" d="M13.264 12.261V6.298a7 7 0 0 0 4.09 1.312V5.33a4.1 4.1 0 0 1-2.228-1.315 4.1 4.1 0 0 1-1.793-2.676H11.18l-.005 11.76a2.468 2.468 0 0 1-4.47 1.346 2.47 2.47 0 0 1-1.324-2.184 2.47 2.47 0 0 1 2.47-2.467c.255 0 .5.042.73.114v-2.3c-2.925.068-5.283 2.462-5.283 5.397 0 1.42.553 2.713 1.453 3.678.88.616 1.948.979 3.1.979 2.984 0 5.412-2.423 5.412-5.401"/><path fill="#fff" fill-rule="evenodd" d="M24.57 3.101h9.179l-.843 2.647h-2.38l.004 9.23v.553h-2.972V5.747H24.92l-.348.006zm24.217 0h9.391l-.842 2.647h-2.594l.005 9.23v.56h-2.972V5.746h-2.638l-.348.006zM34.31 7.326v-.27h2.943v.27l.005 7.425-.009.78h-2.922v-.423zm4.11-3.674v-.586h2.91v.51l.004 5.28 2.94-2.882h3.509L44.097 9.58l4.128 5.952h-3.239l-2.755-4.127-.873.853.002 3.28-2.929-.006v-.265z" clip-rule="evenodd"/><mask id="a" width="11" height="13" x="69" y="3" maskUnits="userSpaceOnUse" style="mask-type:luminance"><path fill="#fff" fill-rule="evenodd" d="M69.57 3.066h9.805v12.471h-9.806z" clip-rule="evenodd"/></mask><g mask="url(#a)"><path fill="#fff" fill-rule="evenodd" d="M69.57 3.652v-.586h2.909v.51l.004 5.28 2.94-2.882h3.509L75.247 9.58l4.128 5.952h-3.24l-2.754-4.127-.873.853.001 3.28-2.928-.006v-.265z" clip-rule="evenodd"/></g><path fill="#fff" fill-rule="evenodd" d="M68.216 8.459a5.1 5.1 0 0 0-1.074-1.605 5 5 0 0 0-1.596-1.072 5 5 0 0 0-1.96-.39l-.061.002v-.001h-.642l.05.002q.127.004.255.013a5 5 0 0 1 .491.06q.008 0 .015.002.22.037.43.094l.038.01.097.028a3 3 0 0 1 .165.052l.106.037.063.023q.086.032.17.068.916.39 1.595 1.072.679.683 1.074 1.605.396.921.396 1.994 0 .71-.18 1.361-.178.652-.505 1.215a5 5 0 0 1-3.198 2.364l-.077.017a5 5 0 0 1-.393.067 5 5 0 0 1-.573.042h-.004.602l.093.001a5 5 0 0 0 3.553-1.469 5 5 0 0 0 .781-1.022 5.15 5.15 0 0 0 .685-2.576q0-1.073-.396-1.994m-6.031 7.024-.074-.01a6 6 0 0 1-.372-.063l-.073-.015a4.97 4.97 0 0 1-3.217-2.366 5.14 5.14 0 0 1-.688-2.577 5.1 5.1 0 0 1 .685-2.58q.325-.56.781-1.018a5 5 0 0 1 1.016-.783 5 5 0 0 1 1.49-.569l.096-.018a5 5 0 0 1 .854-.09l.035-.001h-.692a5.1 5.1 0 0 0-2.56.678 5 5 0 0 0-1.016.783 5.03 5.03 0 0 0-1.287 2.233q-.18.656-.18 1.365a5.1 5.1 0 0 0 .688 2.577 5 5 0 0 0 1.8 1.809q.559.328 1.207.505a5.1 5.1 0 0 0 1.435.177h.604l-.003-.002a6 6 0 0 1-.529-.035" clip-rule="evenodd"/><path fill="#fff" fill-rule="evenodd" d="M62.83 12.915h.034l.062-.001-.03-.001zm.104-4.917-.072-.001h-.03l.076.002z" clip-rule="evenodd"/><path fill="#fff" fill-rule="evenodd" d="M65.153 11.116q-.088.315-.246.59a2.43 2.43 0 0 1-1.455 1.124 2.4 2.4 0 0 1-.526.084l-.062.002-.034-.001h-.028a2.6 2.6 0 0 1-.657-.085 2.42 2.42 0 0 1-1.707-1.714 2.5 2.5 0 0 1-.088-.662 2.5 2.5 0 0 1 .712-1.747q.222-.225.493-.38a2.46 2.46 0 0 1 1.244-.33h.063l.072.001-.026.001q.445.018.843.187a2.4 2.4 0 0 1 1.297 1.3q.191.447.192.968 0 .345-.087.662m2.28-2.658a4.97 4.97 0 0 0-2.84-2.745l-.062-.022a5 5 0 0 0-.272-.09q-.048-.015-.097-.028l-.037-.01a5 5 0 0 0-.43-.094l-.015-.002a6 6 0 0 0-.747-.072l-.13-.003-.12.002a5.1 5.1 0 0 0-2.44.676 5 5 0 0 0-1.016.784 5 5 0 0 0-.781 1.018 5.1 5.1 0 0 0-.685 2.58q0 .71.18 1.362.181.652.508 1.215a4.98 4.98 0 0 0 3.217 2.366l.073.015q.07.016.141.028l.086.014q.072.012.145.021l.074.01a5 5 0 0 0 .53.035l.094.002.093-.002a5 5 0 0 0 .573-.041q.088-.012.175-.026l.096-.017a5 5 0 0 0 .401-.091 5 5 0 0 0 2.215-1.292q.456-.46.782-1.022.325-.563.505-1.215t.18-1.361q0-1.072-.396-1.995M37.264 4.593c0 .823-.663 1.491-1.48 1.491-.818 0-1.48-.668-1.48-1.491s.662-1.492 1.48-1.492c.817 0 1.48.668 1.48 1.492m54.029-1.475 5.643 12.484h-1.932l-1.886-4.121h-5.171l-1.868 4.121h-1.946L89.78 3.118zM90.55 5.71l-2.051 4.543h4.087z" clip-rule="evenodd"/><path fill="#fff" fill-rule="evenodd" d="M87.687 10.045h5.888v1.781h-5.888z" clip-rule="evenodd"/><path fill="#fff" d="M113.393 8.598a2.1 2.1 0 0 0-.794-.833 2.3 2.3 0 0 0-1.223-.327 3 3 0 0 0-.647.072q-.309.069-.543.222a1.15 1.15 0 0 0-.363.373 1 1 0 0 0-.13.52c0 .35.134.604.416.788q.48.315 1.566.543 1.658.34 2.474 1.016c.565.47.851 1.107.851 1.892q.001.841-.331 1.435a2.86 2.86 0 0 1-.854.957q-.522.367-1.174.525a5.5 5.5 0 0 1-1.285.153q-1.076 0-2.09-.45a3.94 3.94 0 0 1-1.688-1.431l-.128-.189 1.44-1.075.132.23q.317.55.944.93.622.377 1.371.377.403 0 .767-.074.343-.069.594-.238.244-.164.391-.42.141-.242.142-.632c0-.391-.178-.672-.56-.873q-.66-.346-1.932-.654-.414-.1-.878-.249a3.2 3.2 0 0 1-.909-.463 2.6 2.6 0 0 1-.704-.785q-.285-.49-.284-1.195 0-.761.299-1.315a2.64 2.64 0 0 1 .798-.9 3.5 3.5 0 0 1 1.111-.514q.611-.165 1.261-.165a4.4 4.4 0 0 1 1.942.453q.955.46 1.439 1.307l.104.182-1.396 1.057z"/><path fill="#fff" fill-rule="evenodd" d="M106.346 3.155h-1.766v3.998a4.7 4.7 0 0 0-2.991-1.066c-2.629 0-4.76 2.149-4.76 4.8s2.131 4.799 4.76 4.799a4.72 4.72 0 0 0 2.991-1.066v1.011h1.766v-4.608l.002-.137-.002-.137zm-1.766 7.623v.217c-.058 1.617-1.375 2.91-2.991 2.91-1.653 0-2.993-1.352-2.993-3.019s1.34-3.018 2.993-3.018c1.616 0 2.933 1.293 2.991 2.91" clip-rule="evenodd"/></svg>
